src/img/home/SVG/1.svg

<svg width="24" height="20" viewBox="0 0 24 20" fill="none" xmlns="http://www.w3.org/2000/svg">
<path d="M21.5156 5.125C22.4531 4.42188 23.2969 3.57812 23.9531 2.59375C23.1094 2.96875 22.125 3.25 21.1406 3.34375C22.1719 2.73438 22.9219 1.79688 23.2969 0.625C22.3594 1.1875 21.2812 1.60938 20.2031 1.84375C19.2656 0.859375 18 0.296875 16.5938 0.296875C13.875 0.296875 11.6719 2.5 11.6719 5.21875C11.6719 5.59375 11.7188 5.96875 11.8125 6.34375C7.73438 6.10938 4.07812 4.14062 1.64062 1.1875C1.21875 1.89062 0.984375 2.73438 0.984375 3.67188C0.984375 5.35938 1.82812 6.85938 3.1875 7.75C2.39062 7.70312 1.59375 7.51562 0.9375 7.14062V7.1875C0.9375 9.57812 2.625 11.5469 4.875 12.0156C4.5 12.1094 4.03125 12.2031 3.60938 12.2031C3.28125 12.2031 3 12.1562 2.67188 12.1094C3.28125 14.0781 5.10938 15.4844 7.26562 15.5312C5.57812 16.8438 3.46875 17.6406 1.17188 17.6406C0.75 17.6406 0.375 17.5938 0 17.5469C2.15625 18.9531 4.73438 19.75 7.54688 19.75C16.5938 19.75 21.5156 12.2969 21.5156 5.78125C21.5156 5.54688 21.5156 5.35938 21.5156 5.125Z" fill="$textColorMinor"/>
</svg>

<svg width="24" height="20" fill="none" xmlns="http://www.w3.org/2000/svg"><path d="M21.516 5.125c.937-.703 1.78-1.547 2.437-2.531a9.225 9.225 0 01-2.812.75A4.809 4.809 0 0023.297.625c-.938.563-2.016.984-3.094 1.219a4.922 4.922 0 00-3.61-1.547 4.921 4.921 0 00-4.921 4.922c0 .375.047.75.14 1.125a14.28 14.28 0 01-10.17-5.157C1.22 1.891.985 2.734.985 3.672c0 1.687.844 3.187 2.204 4.078-.797-.047-1.594-.234-2.25-.61v.048a4.928 4.928 0 003.937 4.828c-.375.093-.844.187-1.266.187-.328 0-.609-.047-.937-.094.61 1.97 2.437 3.375 4.594 3.422a9.895 9.895 0 01-6.094 2.11c-.422 0-.797-.047-1.172-.094 2.156 1.406 4.734 2.203 7.547 2.203 9.047 0 13.969-7.453 13.969-13.969v-.656z" fill="$textColorMinor"/></svg>
